docs-src/static/files/icons/appwrite.svg

<svg width="132" height="24" viewBox="0 0 132 24" fill="none" xmlns="http://www.w3.org/2000/svg">
<path d="M38.5573 19.495C40.7162 19.495 41.8075 18.3817 42.282 17.6238H42.4955C42.5904 18.4291 43.1598 19.1871 44.2749 19.1871H46.3864V16.8185H45.8407C45.4611 16.8185 45.2713 16.6053 45.2713 16.2737V6.77565H42.4718V8.29155H42.2583C41.7126 7.5336 40.5738 6.46773 38.4861 6.46773C35.1646 6.46773 32.6973 9.2153 32.6973 12.9814C32.6973 16.7474 35.2121 19.495 38.5573 19.495ZM39.0555 16.7948C37.0863 16.7948 35.5442 15.3499 35.5442 13.005C35.5442 10.7075 37.0389 9.14424 39.0317 9.14424C40.9297 9.14424 42.5193 10.5417 42.5193 13.005C42.5193 15.1131 41.167 16.7948 39.0555 16.7948Z" fill="#EDEDF0"/>
<path d="M48.0392 23.9998H50.8387V17.6238H51.0522C51.5742 18.3817 52.6893 19.495 54.8956 19.495C58.2171 19.495 60.637 16.7 60.637 12.9814C60.637 9.23899 58.051 6.46773 54.7058 6.46773C52.5706 6.46773 51.5267 7.62834 51.0285 8.26786H50.815V6.77565H48.0392V23.9998ZM54.3025 16.8658C52.3808 16.8658 50.7913 15.4447 50.7913 12.9814C50.7913 10.8733 52.1436 9.09687 54.2551 9.09687C56.2242 9.09687 57.7663 10.6365 57.7663 12.9814C57.7663 15.2789 56.2717 16.8658 54.3025 16.8658Z" fill="#EDEDF0"/>
<path d="M62.0816 23.9998H64.8811V17.6238H65.0946C65.6165 18.3817 66.7316 19.495 68.938 19.495C72.2594 19.495 74.4487 16.7 74.4487 12.9814C74.4487 9.23899 72.0934 6.46773 68.7482 6.46773C66.613 6.46773 65.5691 7.62834 65.0709 8.26786H64.8573V6.77565H62.0816V23.9998ZM68.3449 16.8658C66.4232 16.8658 64.8336 15.4447 64.8336 12.9814C64.8336 10.8733 66.1859 9.09687 68.2974 9.09687C70.2666 9.09687 71.8087 10.6365 71.8087 12.9814C71.8087 15.2789 70.314 16.8658 68.3449 16.8658Z" fill="#EDEDF0"/>
<path d="M78.1493 19.4753H82.1114L84.3652 9.74037H84.5076L86.7614 19.4753H90.6997L93.8533 7.06386H91.0318L88.778 16.8225H88.5645L86.3106 7.06386H82.5858L80.3083 16.8225H80.0948L77.8647 7.06386H74.8754L78.1493 19.4753Z" fill="#EDEDF0"/>
<path d="M95.2716 19.4753H98.0711V13.3406C98.0711 10.9957 99.1624 9.55088 101.203 9.55088H102.436V6.75594H101.511C99.9216 6.75594 98.7117 7.84549 98.2372 8.88767H98.0474V7.06386H95.2716V19.4753Z" fill="#EDEDF0"/>
<path d="M116.329 19.4753H118.512V16.9883H116.353C115.499 16.9883 115.143 16.6093 115.143 15.7329V9.52719H118.654V7.06386H115.143V3.58203H112.486V7.06386H110.161V9.52719H112.32V15.7566C112.32 18.3857 113.909 19.4753 116.329 19.4753Z" fill="#EDEDF0"/>
<path d="M126.022 19.495C128.608 19.495 130.886 18.2159 131.692 15.6342L129.13 15.0183C128.679 16.3921 127.375 17.1027 125.999 17.1027C123.958 17.1027 122.606 15.7763 122.582 13.6919H132.001V12.9103C132.001 9.2153 129.7 6.46773 125.904 6.46773C122.558 6.46773 119.688 9.09687 119.688 13.005C119.688 16.7948 122.226 19.495 126.022 19.495ZM122.606 11.6549C122.772 10.1627 124.124 8.90738 125.904 8.90738C127.612 8.90738 129.012 9.97325 129.154 11.6549H122.606Z" fill="#EDEDF0"/>
<path fill-rule="evenodd" clip-rule="evenodd" d="M108.916 19.4753H106.116V9.52719H103.934V7.06386H108.916V19.4753Z" fill="#EDEDF0"/>
<path d="M107.309 5.3412C108.329 5.3412 109.088 4.58325 109.088 3.58845C109.088 2.61732 108.329 1.85938 107.309 1.85938C106.288 1.85938 105.529 2.61732 105.529 3.58845C105.529 4.58325 106.288 5.3412 107.309 5.3412Z" fill="#EDEDF0"/>
<path d="M24.4429 16.4322V21.9096H10.7519C6.76318 21.9096 3.28044 19.7067 1.4171 16.4322C1.14622 15.9561 0.909137 15.4567 0.710264 14.9383C0.319864 13.9225 0.0744552 12.8325 0 11.6952V10.2143C0.0161646 9.96089 0.0416361 9.70942 0.0749451 9.46095C0.143032 8.95105 0.245898 8.45211 0.381093 7.96711C1.66006 3.36909 5.81877 0 10.7519 0C15.6851 0 19.8433 3.36909 21.1223 7.96711H15.2682C14.3072 6.4683 12.6437 5.4774 10.7519 5.4774C8.86017 5.4774 7.19668 6.4683 6.23562 7.96711C5.9427 8.42274 5.71542 8.92516 5.56651 9.46095C5.43425 9.93599 5.36371 10.4369 5.36371 10.9548C5.36371 12.5248 6.01324 13.94 7.05463 14.9383C8.01961 15.865 9.32061 16.4322 10.7519 16.4322H24.4429Z" fill="#FD366E"/>
<path d="M24.4429 9.46094V14.9383H14.4492C15.4906 13.94 16.1401 12.5248 16.1401 10.9548C16.1401 10.4369 16.0696 9.93598 15.9373 9.46094H24.4429Z" fill="#FD366E"/>
</svg>

<svg xmlns="http://www.w3.org/2000/svg" width="132" height="24" fill="none"><path fill="#EDEDF0" d="M38.557 19.495c2.16 0 3.25-1.113 3.725-1.871h.214c.094.805.664 1.563 1.779 1.563h2.111v-2.369h-.545c-.38 0-.57-.213-.57-.544V6.776h-2.8v1.516h-.213c-.545-.758-1.684-1.824-3.772-1.824-3.321 0-5.789 2.747-5.789 6.513s2.515 6.514 5.86 6.514m.498-2.7c-1.969 0-3.51-1.445-3.51-3.79 0-2.298 1.494-3.86 3.487-3.86 1.898 0 3.487 1.397 3.487 3.86 0 2.108-1.352 3.79-3.463 3.79M48.04 24h2.799v-6.376h.213c.522.758 1.637 1.871 3.844 1.871 3.321 0 5.741-2.795 5.741-6.514 0-3.742-2.586-6.513-5.931-6.513-2.135 0-3.18 1.16-3.678 1.8h-.213V6.776h-2.776zm6.263-7.134c-1.922 0-3.512-1.421-3.512-3.885 0-2.108 1.353-3.884 3.464-3.884 1.97 0 3.511 1.54 3.511 3.884 0 2.298-1.494 3.885-3.463 3.885M62.082 24h2.8v-6.376h.213c.522.758 1.637 1.871 3.843 1.871 3.321 0 5.51-2.795 5.51-6.514 0-3.742-2.355-6.513-5.7-6.513-2.135 0-3.179 1.16-3.677 1.8h-.214V6.776h-2.775zm6.263-7.134c-1.922 0-3.511-1.421-3.511-3.885 0-2.108 1.352-3.884 3.463-3.884 1.97 0 3.512 1.54 3.512 3.884 0 2.298-1.495 3.885-3.464 3.885M78.15 19.475h3.961l2.254-9.735h.143l2.253 9.735H90.7l3.153-12.411h-2.821l-2.254 9.759h-.214l-2.253-9.76h-3.725l-2.278 9.76h-.213l-2.23-9.76h-2.99zM95.272 19.475h2.8v-6.134c0-2.345 1.09-3.79 3.131-3.79h1.233V6.756h-.925c-1.59 0-2.8 1.09-3.274 2.132h-.19V7.064h-2.775zM116.329 19.475h2.183v-2.487h-2.159c-.854 0-1.21-.379-1.21-1.255V9.527h3.511V7.064h-3.511V3.582h-2.657v3.482h-2.325v2.463h2.159v6.23c0 2.629 1.589 3.718 4.009 3.718M126.022 19.495c2.586 0 4.864-1.28 5.67-3.86l-2.562-.617c-.451 1.374-1.755 2.085-3.131 2.085-2.041 0-3.393-1.327-3.417-3.411h9.419v-.782c0-3.695-2.301-6.442-6.097-6.442-3.346 0-6.216 2.629-6.216 6.537 0 3.79 2.538 6.49 6.334 6.49m-3.416-7.84c.166-1.492 1.518-2.748 3.298-2.748 1.708 0 3.108 1.066 3.25 2.748z"/><path fill="#EDEDF0" fill-rule="evenodd" d="M108.916 19.475h-2.8V9.527h-2.182V7.064h4.982z" clip-rule="evenodd"/><path fill="#EDEDF0" d="M107.309 5.341c1.02 0 1.779-.758 1.779-1.753 0-.97-.759-1.729-1.779-1.729s-1.78.758-1.78 1.73c0 .994.759 1.752 1.78 1.752"/><path fill="#FD366E" d="M24.443 16.432v5.478H10.752c-3.989 0-7.472-2.203-9.335-5.478q-.407-.715-.707-1.494A11 11 0 0 1 0 11.695v-1.48q.025-.382.075-.754.102-.766.306-1.494C1.661 3.37 5.82 0 10.751 0c4.934 0 9.092 3.37 10.371 7.967h-5.854c-.96-1.499-2.624-2.49-4.516-2.49s-3.555.991-4.516 2.49a5.5 5.5 0 0 0-.67 1.494 5.6 5.6 0 0 0-.202 1.494 5.5 5.5 0 0 0 1.69 3.983 5.32 5.32 0 0 0 3.698 1.494z"/><path fill="#FD366E" d="M24.443 9.46v5.478h-9.994a5.5 5.5 0 0 0 1.691-3.983 5.6 5.6 0 0 0-.203-1.494z"/></svg>
